X: 35
T: Run, N....r, Run
T: (Run, Nigger, Run)
L:1/8
M:2/4
S: Viola "Mom" Ruth - Pioneer Western Folk Tunes (1948)
K:G
d/e/d/B/ GG|D/G/A/G/ Bd|d/e/d/B/ Gc|B/G/A/F/ Gd:|
|:g/a/g/e/ dd|A/d/e/d/ fa|g/a/g/e/ dd|B/G/A/F/ Gd:|

%%sep 1 1 500
